X: 369
T: Charles Mac Hugh   #2
R: air
%S: s:2 b:20(10+10)
B: O'Neill's 1850 #369
Z: Chris Falt, cfalt@trytel.com
N: Compacted via repeats and multiple endings [JC]
Q: "Plaintive."
M: 3/8
L: 1/16
K: Gm
"^A"\
[|] (GF) | (D2G2).G2 | (G4 AB) | (cdcBAG) | (F2G2).A2 || .B2(Bcde) | (f2d2) \
[1  (cB) | (A2F2).F2 | F4 :|[2 (Tdc) | (B2G2).G2 | G4 |]
"^B"\
|:  (de  | f2)"^>"d2 (de | f2)"^>"d2 d2 | (cdcBAG) | .F2(FGA)z || .B2(Bcde) | (f2d2) \
[1  (dc) | (d2c2).c2 | c4 :|[2 (Tdc) | (B2G2).G2 | G4 |]
